assets/images/afrikons/unlocked-outline.svg

<svg viewBox="0 0 50 50" xmlns="http://www.w3.org/2000/svg"><path d="m0 0h50v50h-50z" fill="none"/><rect fill="none" height="31.55" rx="2.38" width="36.2" x="6.9" y="16.35"/><path d="m40.72 14.25h-1.72v-7.45a6.81 6.81 0 0 0 -6.78-6.8h-14.44a6.81 6.81 0 0 0 -6.78 6.8v3.2h2.1v-3.2a4.71 4.71 0 0 1 4.7-4.7h14.42a4.71 4.71 0 0 1 4.7 4.7v7.45h-27.64a4.49 4.49 0 0 0 -4.48 4.48v26.78a4.49 4.49 0 0 0 4.48 4.49h31.44a4.49 4.49 0 0 0 4.48-4.49v-26.78a4.49 4.49 0 0 0 -4.48-4.48zm2.38 31.26a2.39 2.39 0 0 1 -2.38 2.39h-31.44a2.39 2.39 0 0 1 -2.38-2.39v-26.78a2.39 2.39 0 0 1 2.38-2.38h31.44a2.39 2.39 0 0 1 2.38 2.38z" fill="#212121"/></svg>

<svg xmlns="http://www.w3.org/2000/svg" viewBox="0 0 50 50"><defs><style>.cls-1{fill:none;}.cls-2{fill:#212121;}</style></defs><title>unlocked-outline</title><g id="Layer_2" data-name="Layer 2"><g id="Layer_1-2" data-name="Layer 1"><rect class="cls-1" width="50" height="50"/><rect class="cls-1" x="6.9" y="16.35" width="36.2" height="31.55" rx="2.38"/><path class="cls-2" d="M40.72,14.25H39V6.8A6.81,6.81,0,0,0,32.22,0H17.78A6.81,6.81,0,0,0,11,6.8V10h2.1V6.8a4.71,4.71,0,0,1,4.7-4.7H32.22a4.71,4.71,0,0,1,4.7,4.7v7.45H9.28A4.49,4.49,0,0,0,4.8,18.73V45.51A4.49,4.49,0,0,0,9.28,50H40.72a4.49,4.49,0,0,0,4.48-4.49V18.73A4.49,4.49,0,0,0,40.72,14.25ZM43.1,45.51a2.39,2.39,0,0,1-2.38,2.39H9.28A2.39,2.39,0,0,1,6.9,45.51V18.73a2.39,2.39,0,0,1,2.38-2.38H40.72a2.39,2.39,0,0,1,2.38,2.38Z"/></g></g></svg>
